X: 16843
T: Harvest Moon
R: reel
M: 4/4
K: Adorian
(3Bcd|:"Am"eA ~A2AcBA|"G"GEDE GABd|"Am"eA ~A2 (3Bcd eg|"Fmaj7"a2 ge "G"dged|
"Am"eA ~A2 AcBA|"G"GEDE GA (3Bcd|"Am"{d}e3 a "G"gedB|"Em"Gd (3BAG "Am"BA (3Bcd:|
"C"c3 d eg (3ggg|eaaf {f}g2 ed|eA (3AAA (3Bcd eg|agge dged|
"D7"c3 d eg (3ggg|eaaf gedB|"Fmaj7"cABA "G"GE (3EEE|1 "Em"GABG "Am"~A3 B:|2 "Em"GABG "Am"A2||

